svg/aws.svg

<?xml version="1.0" encoding="UTF-8"?>
<svg xmlns="http://www.w3.org/2000/svg" xmlns:xlink="http://www.w3.org/1999/xlink" width="53.512001" height="32" viewBox="0 0 53.512001 32">
<path fill-rule="evenodd" fill="rgb(14.509804%, 18.431373%, 24.313725%)" fill-opacity="1" d="M 15.082031 11.621094 C 15.082031 12.28125 15.152344 12.8125 15.277344 13.207031 C 15.433594 13.648438 15.625 14.074219 15.84375 14.488281 C 15.925781 14.605469 15.96875 14.75 15.96875 14.894531 C 15.96875 15.074219 15.863281 15.253906 15.632812 15.429688 L 14.511719 16.179688 C 14.375 16.277344 14.214844 16.332031 14.046875 16.339844 C 13.871094 16.339844 13.691406 16.25 13.515625 16.089844 C 13.265625 15.820312 13.050781 15.539062 12.875 15.253906 C 12.695312 14.949219 12.515625 14.613281 12.320312 14.203125 C 10.933594 15.839844 9.1875 16.660156 7.089844 16.660156 C 5.59375 16.660156 4.402344 16.230469 3.53125 15.378906 C 2.65625 14.523438 2.210938 13.382812 2.210938 11.960938 C 2.210938 10.445312 2.746094 9.21875 3.832031 8.292969 C 4.917969 7.367188 6.359375 6.90625 8.191406 6.90625 C 8.796875 6.90625 9.421875 6.957031 10.078125 7.046875 C 10.738281 7.136719 11.414062 7.277344 12.125 7.4375 L 12.125 6.140625 C 12.125 4.789062 11.839844 3.84375 11.289062 3.292969 C 10.71875 2.742188 9.757812 2.472656 8.386719 2.472656 C 7.765625 2.472656 7.125 2.542969 6.464844 2.703125 C 5.8125 2.867188 5.171875 3.070312 4.542969 3.308594 C 4.339844 3.398438 4.132812 3.476562 3.921875 3.542969 C 3.796875 3.578125 3.707031 3.59375 3.636719 3.59375 C 3.386719 3.59375 3.261719 3.417969 3.261719 3.042969 L 3.261719 2.171875 C 3.261719 1.886719 3.296875 1.671875 3.386719 1.546875 C 3.476562 1.421875 3.636719 1.300781 3.886719 1.175781 C 4.507812 0.855469 5.257812 0.585938 6.128906 0.375 C 7 0.140625 7.925781 0.0351562 8.90625 0.0351562 C 11.023438 0.0351562 12.570312 0.515625 13.566406 1.476562 C 14.546875 2.4375 15.042969 3.898438 15.042969 5.855469 L 15.042969 11.621094 Z M 7.855469 14.328125 C 8.441406 14.328125 9.046875 14.21875 9.6875 14.007812 C 10.328125 13.792969 10.898438 13.402344 11.378906 12.867188 C 11.664062 12.53125 11.875 12.15625 11.984375 11.730469 C 12.105469 11.222656 12.164062 10.703125 12.160156 10.179688 L 12.160156 9.433594 C 11.621094 9.304688 11.074219 9.203125 10.523438 9.128906 C 9.96875 9.058594 9.410156 9.023438 8.851562 9.023438 C 7.660156 9.023438 6.785156 9.253906 6.199219 9.734375 C 5.613281 10.214844 5.328125 10.890625 5.328125 11.78125 C 5.328125 12.617188 5.539062 13.242188 5.984375 13.667969 C 6.414062 14.113281 7.035156 14.328125 7.855469 14.328125 M 22.144531 16.25 C 21.824219 16.25 21.613281 16.195312 21.46875 16.070312 C 21.328125 15.964844 21.203125 15.714844 21.097656 15.375 L 16.914062 1.621094 C 16.804688 1.261719 16.753906 1.03125 16.753906 0.90625 C 16.753906 0.621094 16.894531 0.460938 17.179688 0.460938 L 18.925781 0.460938 C 19.261719 0.460938 19.492188 0.515625 19.617188 0.640625 C 19.761719 0.746094 19.867188 0.996094 19.972656 1.335938 L 22.964844 13.117188 L 25.742188 1.335938 C 25.828125 0.980469 25.9375 0.746094 26.078125 0.640625 C 26.222656 0.535156 26.46875 0.460938 26.792969 0.460938 L 28.214844 0.460938 C 28.554688 0.460938 28.785156 0.515625 28.925781 0.640625 C 29.070312 0.746094 29.195312 0.996094 29.265625 1.335938 L 32.078125 13.257812 L 35.15625 1.335938 C 35.261719 0.980469 35.386719 0.746094 35.511719 0.640625 C 35.652344 0.535156 35.886719 0.460938 36.207031 0.460938 L 37.859375 0.460938 C 38.144531 0.460938 38.304688 0.605469 38.304688 0.90625 C 38.304688 0.996094 38.289062 1.085938 38.269531 1.191406 C 38.246094 1.34375 38.203125 1.492188 38.144531 1.636719 L 33.855469 15.394531 C 33.75 15.75 33.625 15.980469 33.484375 16.089844 C 33.339844 16.195312 33.109375 16.265625 32.808594 16.265625 L 31.277344 16.265625 C 30.9375 16.265625 30.707031 16.214844 30.5625 16.089844 C 30.421875 15.964844 30.296875 15.734375 30.226562 15.378906 L 27.46875 3.898438 L 24.726562 15.359375 C 24.636719 15.714844 24.53125 15.945312 24.386719 16.070312 C 24.246094 16.195312 23.996094 16.25 23.675781 16.25 Z M 45.015625 16.730469 C 44.089844 16.730469 43.171875 16.621094 42.273438 16.410156 C 41.386719 16.195312 40.691406 15.964844 40.226562 15.695312 C 39.941406 15.535156 39.746094 15.359375 39.675781 15.199219 C 39.605469 15.042969 39.570312 14.871094 39.570312 14.699219 L 39.570312 13.792969 C 39.570312 13.417969 39.710938 13.242188 39.980469 13.242188 C 40.085938 13.242188 40.191406 13.257812 40.300781 13.292969 C 40.40625 13.332031 40.566406 13.402344 40.746094 13.472656 C 41.375 13.75 42.03125 13.957031 42.703125 14.09375 C 43.398438 14.238281 44.109375 14.308594 44.820312 14.308594 C 45.941406 14.308594 46.8125 14.113281 47.417969 13.722656 C 48.023438 13.332031 48.34375 12.761719 48.34375 12.03125 C 48.34375 11.53125 48.183594 11.125 47.863281 10.785156 C 47.542969 10.445312 46.9375 10.144531 46.066406 9.859375 L 43.484375 9.058594 C 42.1875 8.648438 41.226562 8.042969 40.636719 7.242188 C 40.050781 6.460938 39.746094 5.589844 39.746094 4.664062 C 39.746094 3.914062 39.90625 3.257812 40.226562 2.6875 C 40.546875 2.117188 40.976562 1.621094 41.507812 1.226562 C 42.0625 0.808594 42.691406 0.496094 43.359375 0.300781 C 44.074219 0.0898438 44.820312 0 45.601562 0 C 45.996094 0 46.402344 0.015625 46.796875 0.0703125 C 47.203125 0.125 47.578125 0.195312 47.953125 0.265625 C 48.308594 0.355469 48.648438 0.445312 48.96875 0.550781 C 49.289062 0.65625 49.535156 0.765625 49.714844 0.871094 C 49.964844 1.015625 50.140625 1.15625 50.25 1.316406 C 50.355469 1.457031 50.410156 1.65625 50.410156 1.902344 L 50.410156 2.742188 C 50.410156 3.113281 50.265625 3.308594 50 3.308594 C 49.855469 3.308594 49.625 3.238281 49.324219 3.097656 C 48.308594 2.632812 47.167969 2.402344 45.90625 2.402344 C 44.890625 2.402344 44.089844 2.5625 43.539062 2.902344 C 42.988281 3.238281 42.703125 3.753906 42.703125 4.484375 C 42.703125 4.984375 42.878906 5.410156 43.234375 5.75 C 43.59375 6.085938 44.25 6.425781 45.195312 6.726562 L 47.722656 7.527344 C 49.003906 7.9375 49.929688 8.507812 50.480469 9.238281 C 51.03125 9.964844 51.296875 10.800781 51.296875 11.726562 C 51.296875 12.492188 51.136719 13.1875 50.835938 13.792969 C 50.519531 14.402344 50.078125 14.9375 49.535156 15.359375 C 48.984375 15.804688 48.328125 16.125 47.5625 16.355469 C 46.761719 16.605469 45.921875 16.730469 45.015625 16.730469 M 45.015625 16.730469 "/>
<path fill-rule="evenodd" fill="rgb(100%, 60%, 0%)" fill-opacity="1" d="M 48.378906 25.378906 C 42.523438 29.703125 34.015625 32 26.703125 32 C 16.449219 32 7.214844 28.210938 0.238281 21.910156 C -0.316406 21.410156 0.183594 20.734375 0.84375 21.125 C 8.386719 25.503906 17.695312 28.15625 27.324219 28.15625 C 33.820312 28.15625 40.957031 26.804688 47.523438 24.027344 C 48.503906 23.582031 49.339844 24.667969 48.378906 25.378906 M 50.816406 22.601562 C 50.070312 21.640625 45.871094 22.140625 43.964844 22.371094 C 43.394531 22.441406 43.308594 21.945312 43.824219 21.570312 C 47.167969 19.222656 52.667969 19.898438 53.308594 20.679688 C 53.949219 21.480469 53.132812 26.980469 50 29.613281 C 49.519531 30.023438 49.054688 29.8125 49.269531 29.277344 C 49.980469 27.515625 51.566406 23.546875 50.816406 22.601562 M 50.816406 22.601562 "/>
</svg>

<svg role="img" viewBox="0 0 53.512 32" height="32" width="53.512" xmlns="http://www.w3.org/2000/svg"><path d="M15.082 11.621c0 .66.07 1.191.195 1.586.157.441.348.867.567 1.281a.722.722 0 0 1 .125.407c0 .18-.106.359-.336.535l-1.121.75a.865.865 0 0 1-.465.16c-.176 0-.356-.09-.531-.25-.25-.27-.465-.55-.641-.836-.18-.305-.36-.64-.555-1.05-1.386 1.636-3.133 2.456-5.23 2.456-1.496 0-2.688-.43-3.559-1.281-.875-.856-1.32-1.996-1.32-3.418 0-1.516.535-2.742 1.621-3.668 1.086-.926 2.527-1.387 4.36-1.387.605 0 1.23.051 1.886.14.66.09 1.336.231 2.047.391V6.142c0-1.352-.285-2.297-.836-2.848-.57-.55-1.531-.82-2.902-.82-.621 0-1.262.07-1.922.23-.652.164-1.293.367-1.922.606-.203.09-.41.168-.621.234-.125.035-.215.05-.285.05-.25 0-.375-.175-.375-.55v-.871c0-.285.035-.5.125-.625s.25-.246.5-.371c.62-.32 1.37-.59 2.242-.801C7 .141 7.926.035 8.906.035c2.117 0 3.664.48 4.66 1.442.98.96 1.477 2.421 1.477 4.378v5.766Zm-7.227 2.707c.586 0 1.192-.11 1.832-.32.641-.215 1.211-.606 1.692-1.14.285-.337.496-.712.605-1.138a6.47 6.47 0 0 0 .176-1.55v-.746c-.539-.13-1.086-.23-1.637-.305a13.297 13.297 0 0 0-1.671-.106c-1.192 0-2.067.23-2.653.711-.586.48-.87 1.157-.87 2.047 0 .836.21 1.461.655 1.887.43.445 1.051.66 1.871.66m14.29 1.922c-.32 0-.532-.055-.676-.18-.14-.105-.266-.355-.371-.695L16.914 1.621c-.11-.36-.16-.59-.16-.715 0-.285.14-.445.426-.445h1.746c.336 0 .566.055.691.18.145.105.25.355.356.695l2.992 11.781 2.777-11.781c.086-.356.195-.59.336-.695.145-.106.39-.18.715-.18h1.422c.34 0 .57.055.71.18.145.105.27.355.34.695l2.813 11.922 3.078-11.922c.106-.356.23-.59.356-.695.14-.106.375-.18.695-.18h1.652c.286 0 .446.144.446.445 0 .09-.016.18-.035.285a1.99 1.99 0 0 1-.125.446l-4.29 13.758c-.105.355-.23.585-.37.695-.145.105-.376.176-.676.176h-1.532c-.34 0-.57-.051-.715-.176-.14-.125-.265-.356-.335-.711l-2.758-11.48-2.742 11.46c-.09.356-.196.586-.34.711-.14.125-.39.18-.711.18Zm22.87.48a11.99 11.99 0 0 1-2.742-.32c-.886-.215-1.582-.445-2.046-.715-.286-.16-.48-.336-.551-.496a1.222 1.222 0 0 1-.106-.5v-.906c0-.375.14-.55.41-.55.106 0 .211.015.32.05.106.039.266.11.446.18a9.585 9.585 0 0 0 1.957.62c.695.145 1.406.216 2.117.216 1.121 0 1.992-.196 2.598-.586.605-.391.926-.961.926-1.692 0-.5-.16-.906-.48-1.246-.321-.34-.926-.64-1.798-.926l-2.582-.8c-1.297-.41-2.257-1.016-2.847-1.817-.586-.781-.89-1.652-.89-2.578 0-.75.16-1.406.48-1.976.32-.57.75-1.067 1.28-1.461A5.765 5.765 0 0 1 43.36.3c.714-.21 1.46-.3 2.242-.3.394 0 .8.016 1.195.07.406.055.781.125 1.156.196.356.09.695.18 1.016.285.32.105.566.215.746.32.25.145.426.285.535.445.105.141.16.34.16.586v.84c0 .371-.144.567-.41.567-.145 0-.375-.07-.676-.211-1.015-.465-2.156-.696-3.418-.696-1.015 0-1.816.16-2.367.5-.55.336-.836.852-.836 1.582 0 .5.176.926.531 1.266.36.336 1.016.676 1.961.977l2.528.8c1.28.41 2.207.98 2.757 1.711.551.727.817 1.563.817 2.489 0 .765-.16 1.46-.461 2.066a4.754 4.754 0 0 1-1.3 1.566c-.552.446-1.208.766-1.974.996-.8.25-1.64.375-2.546.375m0 0" fill="rgb(14.509804%, 18.431373%, 24.313725%)" fill-rule="evenodd"/><path d="M48.379 25.379C42.523 29.703 34.016 32 26.703 32 16.45 32 7.215 28.21.238 21.91c-.554-.5-.054-1.176.606-.785 7.543 4.379 16.851 7.031 26.48 7.031 6.496 0 13.633-1.351 20.2-4.129.98-.445 1.816.641.855 1.352m2.437-2.777c-.746-.961-4.945-.461-6.851-.23-.57.07-.656-.427-.14-.802 3.343-2.347 8.843-1.672 9.484-.89.64.8-.176 6.3-3.309 8.933-.48.41-.945.2-.73-.336.71-1.761 2.296-5.73 1.546-6.675m0 0" fill="rgb(100%, 60%, 0%)" fill-rule="evenodd"/></svg>
